<?xml version="1.0" encoding="UTF-8"?>
<map version="1.10" tiledversion="1.10.2" orientation="orthogonal" renderorder="right-down" width="82" height="82" tilewidth="32" tileheight="32" infinite="0" nextlayerid="7" nextobjectid="21">
  <properties>
    <property name="floorName" value="Cathedral District"/>
  </properties>
  <imagelayer id="6" name="visual_backdrop">
    <image source="floor47_backdrop.png" width="2624" height="2624"/>
  </imagelayer>
  <objectgroup id="1" name="collision">
    <object id="1" x="0" y="0" width="2624" height="32"/>
    <object id="2" x="0" y="2592" width="2624" height="32"/>
    <object id="3" x="0" y="0" width="32" height="2624"/>
    <object id="4" x="2592" y="0" width="32" height="2624"/>
    <object id="5" x="1120" y="1120" width="384" height="64"/>
    <object id="6" x="1120" y="1440" width="384" height="64"/>
    <object id="7" x="1120" y="1120" width="64" height="384"/>
    <object id="8" x="1440" y="1120" width="64" height="384"/>
    <object id="9" x="256" y="320" width="256" height="96"/>
    <object id="10" x="2112" y="576" width="320" height="96"/>
    <object id="11" x="384" y="2176" width="384" height="96"/>
  </objectgroup>
  <objectgroup id="2" name="spawn">
    <object id="12" x="96" y="96" width="32" height="32"/>
  </objectgroup>
  <objectgroup id="3" name="enemy_spawns">
    <object id="13" name="spawn_47_1" x="320" y="256" width="28" height="24">
      <properties>
        <property name="type" value="slime"/>
        <property name="respawn" type="float" value="10"/>
      </properties>
    </object>
    <object id="14" name="spawn_47_2" x="640" y="352" width="28" height="24">
      <properties>
        <property name="type" value="dark_elf"/>
        <property name="respawn" type="float" value="11"/>
      </properties>
    </object>
    <object id="15" name="spawn_47_3" x="896" y="576" width="28" height="24">
      <properties>
        <property name="type" value="slime"/>
        <property name="respawn" type="float" value="12"/>
      </properties>
    </object>
    <object id="16" name="spawn_47_4" x="544" y="864" width="28" height="24">
      <properties>
        <property name="type" value="dark_elf"/>
        <property name="respawn" type="float" value="13"/>
      </properties>
    </object>
    <object id="17" name="boss_47" x="1504" y="1504" width="48" height="48">
      <properties>
        <property name="type" value="skeleton"/>
        <property name="respawn" type="float" value="90"/>
      </properties>
    </object>
  </objectgroup>
  <objectgroup id="4" name="npcs">
    <object id="18" name="heathcliff_47" x="192" y="192" width="28" height="32">
      <properties>
        <property name="name" value="Heathcliff"/>
        <property name="role" value="story"/>
        <property name="dialog" value="Discipline is survival. Keep your party formation tight."/>
      </properties>
    </object>
  </objectgroup>
  <objectgroup id="5" name="exits">
    <object id="19" name="to_floor_50" x="2432" y="2432" width="128" height="128">
      <properties>
        <property name="toFloor" type="int" value="50"/>
      </properties>
    </object>
  </objectgroup>
</map>
